svgs/sharp-duotone-light/circle-arrow-up-left.svg

<svg xmlns="http://www.w3.org/2000/svg" viewBox="0 0 512 512"><!--! Font Awesome Pro 7.1.0 by @fontawesome - https://fontawesome.com License - https://fontawesome.com/license (Commercial License) Copyright 2025 Fonticons, Inc. --><path opacity=".4" fill="currentColor" d="M32 256a224 224 0 1 0 448 0 224 224 0 1 0 -448 0zm128-96l160 0 0 32-105.4 0 132.7 132.7 11.3 11.3-22.6 22.6-11.3-11.3-132.7-132.7 0 105.4-32 0 0-160z"/><path fill="currentColor" d="M256 32a224 224 0 1 1 0 448 224 224 0 1 1 0-448zm0 480a256 256 0 1 0 0-512 256 256 0 1 0 0 512zm48-320l16 0 0-32-160 0 0 160 32 0 0-105.4 132.7 132.7 11.3 11.3 22.6-22.6-11.3-11.3-132.7-132.7 89.4 0z"/></svg>

<svg xmlns="http://www.w3.org/2000/svg" viewBox="0 0 512 512"><!--! Font Awesome Pro 6.7.2 by @fontawesome - https://fontawesome.com License - https://fontawesome.com/license (Commercial License) Copyright 2024 Fonticons, Inc. --><defs><style>.fa-secondary{opacity:.4}</style></defs><path class="fa-secondary" d="M32 256a224 224 0 1 0 448 0A224 224 0 1 0 32 256zm128-96l16 0 136 0 16 0 0 32-16 0-97.4 0L347.3 324.7 358.6 336 336 358.6l-11.3-11.3L192 214.6 192 320l0 16-32 0 0-16 0-144 0-16z"/><path class="fa-primary" d="M256 32a224 224 0 1 1 0 448 224 224 0 1 1 0-448zm0 480A256 256 0 1 0 256 0a256 256 0 1 0 0 512zM176 160l-16 0 0 16 0 144 0 16 32 0 0-16 0-105.4L324.7 347.3 336 358.6 358.6 336l-11.3-11.3L214.6 192l97.4 0 16 0 0-32-16 0-136 0z"/></svg>
